img/logo.svg

<svg width="166" height="45" viewBox="0 0 166 45" fill="none" xmlns="http://www.w3.org/2000/svg">
<path d="M37.4609 26.0904L39.368 26.917L38.8232 25.9755L37.7365 24.1021L37.1378 23.0617L36.3141 21.6383L35.4905 23.0617L34.8886 24.1021L33.802 25.9755L33.2603 26.917L35.1642 26.0904L36.3141 28.3787L37.4609 26.0904Z" fill="#3C2829"/>
<path d="M53.6047 34.5223C53.6047 34.433 53.6047 34.3468 53.6047 34.2574C53.6047 34.2287 53.6047 34.2 53.6047 34.1713C53.6047 34.0819 53.5794 33.9957 53.5635 33.9096C53.5635 33.8809 53.5635 33.8489 53.5477 33.8202C53.5477 33.7404 53.5097 33.6606 53.4875 33.584C53.4653 33.5074 53.4685 33.5106 53.4558 33.4755C53.4431 33.4404 53.4083 33.3415 53.3829 33.2745C53.3576 33.2074 53.3513 33.1883 53.3323 33.1436C53.3133 33.0989 53.2784 33.0255 53.2499 32.9681L53.177 32.8309L53.1517 32.7798L39.387 8.79894C39.3789 8.78884 39.3714 8.77818 39.3648 8.76702C39.2941 8.64414 39.2158 8.52583 39.1304 8.41277C39.0454 8.30052 38.9534 8.19391 38.8548 8.09362L38.8041 8.04255C38.7101 7.9494 38.6107 7.86201 38.5063 7.78085L38.4778 7.75851C37.8614 7.28233 37.1067 7.02331 36.3299 7.02128C36.1784 7.02226 36.0271 7.03292 35.8769 7.05319C35.2706 7.13379 34.6954 7.37129 34.2074 7.74255L34.1599 7.78085C34.0626 7.85762 33.9696 7.93966 33.8811 8.0266L33.8209 8.08724C33.7293 8.18154 33.6425 8.28061 33.5612 8.38404C33.551 8.3932 33.5425 8.40399 33.5358 8.41596C33.4505 8.52682 33.3722 8.64301 33.3014 8.76383L33.2792 8.79894L25.7268 21.9798C25.4792 22.3846 25.3146 22.8354 25.243 23.3055C25.1713 23.7756 25.194 24.2553 25.3097 24.7164C25.4254 25.1775 25.6317 25.6105 25.9164 25.9898C26.2012 26.3691 26.5586 26.687 26.9675 26.9246C27.3764 27.1623 27.8284 27.3149 28.2969 27.3734C28.7654 27.432 29.2407 27.3952 29.6948 27.2654C30.149 27.1355 30.5726 26.9152 30.9407 26.6174C31.3088 26.3197 31.6138 25.9506 31.8378 25.5319L36.3363 17.684L43.9678 31.0021H16.4068L26.4428 13.5447C26.9108 12.7279 27.0375 11.7572 26.7951 10.8463C26.5527 9.93533 25.9611 9.1587 25.1503 8.68724C24.3395 8.21577 23.376 8.08809 22.4718 8.33229C21.5676 8.57649 20.7967 9.17255 20.3287 9.98936L7.22924 32.783C7.22924 32.783 7.22924 32.8117 7.20706 32.8277C7.18489 32.8436 7.15004 32.9426 7.12153 33C7.09302 33.0574 7.07401 33.0926 7.05184 33.1404C7.02966 33.1883 7.00432 33.2649 6.97897 33.3287L6.92829 33.466C6.90928 33.533 6.89027 33.5968 6.87443 33.6638C6.85859 33.7309 6.84909 33.7564 6.83958 33.8043C6.83008 33.8521 6.81424 33.9383 6.80474 34.0053C6.79523 34.0723 6.80474 34.1011 6.78256 34.1489C6.76039 34.1968 6.78256 34.2862 6.78256 34.3532C6.78256 34.4202 6.78256 34.4489 6.78256 34.4968C6.78256 34.5447 6.78256 34.5383 6.78256 34.5606C6.78256 34.583 6.78256 34.6692 6.78256 34.7234C6.78256 34.7777 6.78256 34.8 6.78256 34.8415C6.78256 34.883 6.80157 35.0074 6.81424 35.0904C6.81245 35.1181 6.81245 35.1458 6.81424 35.1734C6.83008 35.2628 6.84909 35.3489 6.87126 35.4351C6.87126 35.4606 6.87126 35.483 6.87126 35.5053C6.89661 35.5915 6.92195 35.6745 6.95046 35.7574C6.95963 35.7856 6.97021 35.8133 6.98214 35.8404C7.01065 35.9138 7.04233 35.9872 7.07401 36.0606L7.12787 36.166C7.15639 36.2272 7.18811 36.2868 7.2229 36.3447L7.30527 36.4819L7.39397 36.6128C7.43199 36.6702 7.47317 36.7213 7.51435 36.7755L7.59672 36.8745L7.74245 37.0372L7.82798 37.1202C7.88184 37.1713 7.93569 37.2223 7.99271 37.2702L8.09726 37.3564L8.25565 37.4745L8.40771 37.5734C8.44957 37.6023 8.49293 37.6289 8.5376 37.6532C8.65971 37.7229 8.78557 37.7858 8.91458 37.8415H8.9431C9.06339 37.8902 9.18604 37.9328 9.31058 37.9692L9.41829 37.9947C9.52255 38.0222 9.62833 38.0435 9.73508 38.0585L9.84913 38.0777C9.98474 38.0941 10.1212 38.1026 10.2578 38.1032H50.0946C50.2302 38.1027 50.3656 38.0942 50.5001 38.0777L50.6173 38.0585C50.7219 38.0585 50.8264 38.0202 50.9341 37.9947L51.0355 37.9692C51.167 37.9326 51.2961 37.8879 51.422 37.8351C51.5534 37.7801 51.6814 37.7172 51.8053 37.6468L51.9415 37.5638C51.9859 37.5351 52.0334 37.5064 52.0809 37.4713C52.1408 37.4315 52.1979 37.3878 52.252 37.3404C52.2805 37.3181 52.309 37.2989 52.3375 37.2734C52.366 37.2479 52.4706 37.1553 52.5339 37.0947L52.5815 37.05C52.648 36.983 52.7113 36.9096 52.7715 36.8362L52.8032 36.7979C52.8644 36.7264 52.9205 36.6507 52.9711 36.5713C52.9856 36.5546 52.9984 36.5364 53.0091 36.517C53.0566 36.4468 53.0978 36.3766 53.139 36.3032C53.1588 36.2713 53.1768 36.2383 53.1929 36.2043C53.2245 36.1436 53.2531 36.083 53.2816 36.0191C53.3101 35.9553 53.3259 35.9234 53.3449 35.8723C53.3639 35.8213 53.3829 35.7702 53.402 35.7191C53.421 35.6681 53.4431 35.5947 53.4621 35.5309L53.5002 35.384C53.5002 35.3202 53.5287 35.2564 53.5413 35.1926C53.554 35.1287 53.5603 35.0745 53.5667 35.017L53.5857 34.8574C53.5857 34.7809 53.5857 34.7043 53.5857 34.6277C53.5873 34.6032 53.5873 34.5787 53.5857 34.5543L53.6047 34.5223Z" fill="#EC7339"/>
<path d="M90.3623 17.0457V24.1915H86.225V17.0457C86.225 14.6649 85.2397 13.4745 83.2693 13.4745C81.2988 13.4745 80.3136 14.6649 80.3136 17.0457V24.1915H76.1763V17.0457C76.1763 14.6649 75.1921 13.4745 73.2237 13.4745C71.2554 13.4745 70.2702 14.6649 70.2681 17.0457V24.1915H66.1307V17.0457C66.1307 12.2777 68.4951 9.89362 73.2237 9.89362C75.3969 9.89362 77.0707 10.3968 78.2449 11.4032C79.4213 10.3968 81.0961 9.89362 83.2693 9.89362C87.9979 9.89362 90.3623 12.2777 90.3623 17.0457Z" fill="#EC7339"/>
<path d="M92.1362 17.0458C92.1362 12.2777 94.8944 9.89362 100.411 9.89362C105.927 9.89362 108.686 12.2745 108.686 17.0362C108.686 21.8021 105.927 24.1841 100.411 24.1819C94.8944 24.1798 92.1362 21.8011 92.1362 17.0458ZM100.411 13.4745C97.6527 13.4745 96.2736 14.6649 96.2736 17.0458C96.2736 19.4266 97.6527 20.6181 100.411 20.6202C103.169 20.6202 104.548 19.4287 104.548 17.0458C104.548 14.6628 103.169 13.4723 100.411 13.4745Z" fill="#EC7339"/>
<path d="M110.46 17.0458C110.46 12.2777 113.218 9.89362 118.734 9.89362C124.251 9.89362 127.009 12.2745 127.009 17.0362C127.009 21.8021 124.251 24.1841 118.734 24.1819C113.218 24.1798 110.46 21.8011 110.46 17.0458ZM118.734 13.4745C115.974 13.4745 114.595 14.6649 114.597 17.0458C114.599 19.4266 115.978 20.6181 118.734 20.6202C121.48 20.6202 122.853 19.4287 122.853 17.0458C122.853 14.6628 121.48 13.4723 118.734 13.4745Z" fill="#EC7339"/>
<path d="M137.055 9.89362H140.603V13.4745H137.055C134.298 13.4745 132.919 14.6649 132.917 17.0457V24.1915H128.78V17.0457C128.78 12.2777 131.538 9.89362 137.055 9.89362Z" fill="#EC7339"/>
<path d="M150.648 9.89362H158.923V13.4745H150.648C148.703 13.4745 147.442 14.0702 146.866 15.2617H158.923V18.8298H146.866C147.442 20.0213 148.703 20.617 150.648 20.617H158.923V24.1915H150.648C145.134 24.1915 142.376 21.8096 142.374 17.0457C142.371 12.2819 145.13 9.89788 150.648 9.89362Z" fill="#EC7339"/>
<path d="M73.2839 29.5404H71.4623C71.3278 29.3101 71.1318 29.1224 70.8965 28.9988C70.6613 28.8752 70.3963 28.8207 70.1318 28.8415C69.0737 28.8415 68.3673 29.5979 68.3673 30.7851C68.3673 32.0617 69.0832 32.783 70.268 32.783C70.6356 32.8028 70.9989 32.696 71.2982 32.4802C71.5976 32.2645 71.8152 31.9526 71.9154 31.5957H69.8245V30.3574H73.4106V31.9149C73.196 32.611 72.7612 33.2174 72.1727 33.6415C71.5842 34.0655 70.8741 34.2841 70.1508 34.2638C68.1265 34.2638 66.7009 32.8372 66.7009 30.7979C66.7009 28.7585 68.117 27.3191 70.1413 27.3191C71.7601 27.3064 72.9386 28.1425 73.2839 29.5404Z" fill="#3C2829"/>
<path d="M91.5471 27.3862C93.2039 27.3862 94.0339 28.3436 94.0339 29.5309C94.0437 29.9831 93.8999 30.4252 93.6262 30.7839C93.3526 31.1426 92.9655 31.3964 92.5292 31.5032L94.091 34.2032H92.2314L90.8248 31.6277H90.4288V34.2032H88.7815V27.3862H91.5471ZM91.4489 28.7649H90.4288V30.4532H91.4489C92.0825 30.4532 92.3549 30.134 92.3549 29.5979C92.3549 29.0617 92.0666 28.7649 91.4489 28.7649Z" fill="#3C2829"/>
<path d="M112.718 34.2702C112.033 34.2708 111.363 34.0667 110.792 33.6836C110.222 33.3004 109.777 32.7555 109.515 32.1178C109.252 31.4801 109.182 30.7781 109.315 30.1007C109.449 29.4233 109.778 28.8009 110.262 28.3121C110.747 27.8234 111.364 27.4903 112.036 27.3549C112.708 27.2196 113.405 27.2881 114.039 27.5518C114.672 27.8155 115.214 28.2625 115.595 28.8363C115.976 29.4101 116.18 30.085 116.181 30.7755C116.19 31.2364 116.107 31.6944 115.936 32.1221C115.765 32.5498 115.511 32.9383 115.187 33.2646C114.864 33.5909 114.479 33.8481 114.055 34.0209C113.63 34.1936 113.176 34.2784 112.718 34.2702ZM112.718 32.7542C113.799 32.7542 114.502 31.9691 114.502 30.7755C114.502 29.5819 113.799 28.7936 112.718 28.7936C111.638 28.7936 110.925 29.5596 110.925 30.7755C110.925 31.9915 111.616 32.7542 112.718 32.7542Z" fill="#3C2829"/>
<path d="M131.52 27.3862H133.158V31.4649C133.158 32.2692 133.551 32.7415 134.333 32.7415C135.116 32.7415 135.528 32.2755 135.528 31.4649V27.3862H137.175V31.4553C137.175 33.3383 135.867 34.2702 134.305 34.2702C132.743 34.2702 131.507 33.3383 131.507 31.4553L131.52 27.3862Z" fill="#3C2829"/>
<path d="M155.47 31.7553H154.45V34.2032H152.799V27.3862H155.47C157.13 27.3862 157.957 28.3436 157.957 29.5787C157.957 30.7053 157.196 31.7553 155.47 31.7553ZM155.334 30.434C155.989 30.434 156.268 30.1149 156.268 29.5787C156.268 29.0426 156.002 28.7234 155.334 28.7234H154.437V30.4309L155.334 30.434Z" fill="#3C2829"/>
</svg>

<svg xmlns="http://www.w3.org/2000/svg" width="166" height="45" fill="none"  xmlns:v="https://vecta.io/nano"><path d="M37.461 26.09l1.907.827-.545-.942-1.087-1.873-.599-1.04-.824-1.423-1.426 2.464-1.087 1.873-.542.942 1.904-.827 1.15 2.288 1.147-2.288z" fill="#3c2829"/><path d="M53.605 34.522v-.351c0-.089-.025-.176-.041-.262 0-.029 0-.061-.016-.089 0-.08-.038-.16-.06-.236l-.032-.109-.073-.201-.051-.131-.082-.175-.073-.137-.025-.051L39.387 8.799c-.008-.01-.016-.021-.022-.032-.071-.123-.149-.241-.234-.354a3.11 3.11 0 0 0-.276-.319l-.051-.051a3.23 3.23 0 0 0-.298-.262l-.029-.022a3.53 3.53 0 0 0-2.148-.737 3.56 3.56 0 0 0-.453.032 3.53 3.53 0 0 0-1.669.689l-.047.038a3.61 3.61 0 0 0-.279.246l-.06.061a3.77 3.77 0 0 0-.26.297c-.01.009-.019.02-.025.032a3.34 3.34 0 0 0-.234.348l-.022.035-7.552 13.181a3.57 3.57 0 0 0-.484 1.326 3.58 3.58 0 0 0 .067 1.411 3.57 3.57 0 0 0 .607 1.273 3.55 3.55 0 0 0 1.051.935 3.51 3.51 0 0 0 1.329.449c.468.059.944.022 1.398-.108a3.52 3.52 0 0 0 1.246-.648 3.55 3.55 0 0 0 .897-1.085l4.499-7.848 7.631 13.318H16.407l10.036-17.457a3.58 3.58 0 0 0 .352-2.698A3.55 3.55 0 0 0 25.15 8.69a3.51 3.51 0 0 0-2.678-.355c-.904.244-1.675.84-2.143 1.657l-13.1 22.791s0 .029-.022.045-.057.115-.086.172l-.07.14c-.022.048-.048.124-.073.188l-.051.137-.054.198-.035.14-.035.201c-.01.067 0 .096-.022.144s0 .137 0 .204v.488a2.74 2.74 0 0 0 .032.249.64.64 0 0 0 0 .083l.057.262v.07l.079.252c.009.028.02.056.032.083l.092.22.054.105a1.93 1.93 0 0 0 .095.179l.082.137.089.131.12.163.082.099.146.163.086.083.165.15.105.086.158.118.152.099a1.44 1.44 0 0 0 .13.08 3.58 3.58 0 0 0 .377.188h.029a3.88 3.88 0 0 0 .367.128l.108.026c.104.027.21.049.317.064l.114.019c.136.016.272.025.409.026h39.837c.136-.001.271-.009.406-.026l.117-.019c.105 0 .209-.038.317-.064l.101-.026a3.26 3.26 0 0 0 .386-.134 3.55 3.55 0 0 0 .383-.188l.136-.083.139-.093a1.62 1.62 0 0 0 .171-.131l.085-.067.196-.179.048-.045c.067-.067.13-.14.19-.214l.032-.038a2.01 2.01 0 0 0 .168-.227c.014-.017.027-.035.038-.054l.13-.214a.95.95 0 0 0 .054-.099l.089-.185.063-.147.057-.153.06-.188.038-.147c0-.064.029-.128.041-.191a1.97 1.97 0 0 0 .025-.176l.019-.16v-.23a.56.56 0 0 0 0-.073l.019-.032zm36.757-17.476v7.146h-4.137v-7.146c0-2.381-.985-3.571-2.956-3.571s-2.956 1.19-2.956 3.571v7.146h-4.137v-7.146c0-2.381-.984-3.571-2.953-3.571s-2.953 1.19-2.956 3.571v7.146H66.13v-7.146c0-4.768 2.364-7.152 7.093-7.152 2.173 0 3.847.503 5.021 1.51 1.176-1.006 2.851-1.51 5.024-1.51 4.729 0 7.093 2.384 7.093 7.152zm1.774 0c0-4.768 2.758-7.152 8.275-7.152s8.275 2.381 8.275 7.143-2.759 7.148-8.275 7.146-8.275-2.381-8.275-7.136zm8.275-3.571c-2.758 0-4.137 1.19-4.137 3.571s1.379 3.572 4.137 3.574 4.137-1.192 4.137-3.574-1.379-3.573-4.137-3.571zm10.049 3.571c0-4.768 2.758-7.152 8.274-7.152s8.275 2.381 8.275 7.143-2.758 7.148-8.275 7.146-8.274-2.381-8.274-7.136zm8.274-3.571c-2.76 0-4.139 1.19-4.137 3.571s1.381 3.572 4.137 3.574c2.746 0 4.119-1.192 4.119-3.574s-1.373-3.573-4.119-3.571zm18.321-3.581h3.548v3.581h-3.548c-2.757 0-4.136 1.19-4.138 3.571v7.146h-4.137v-7.146c0-4.768 2.758-7.152 8.275-7.152zm13.593 0h8.275v3.581h-8.275c-1.945 0-3.206.596-3.782 1.787h12.057v3.568h-12.057c.576 1.192 1.837 1.787 3.782 1.787h8.275v3.575h-8.275c-5.514 0-8.272-2.382-8.274-7.146s2.756-7.148 8.274-7.152z" fill="#ec7339"/><path d="M73.284 29.54h-1.822a1.42 1.42 0 0 0-.566-.542 1.4 1.4 0 0 0-.765-.157c-1.058 0-1.764.756-1.764 1.944 0 1.277.716 1.998 1.901 1.998a1.61 1.61 0 0 0 1.03-.303c.299-.216.517-.528.617-.885h-2.091v-1.238h3.586v1.558a3.34 3.34 0 0 1-1.238 1.727 3.3 3.3 0 0 1-2.022.622c-2.024 0-3.45-1.427-3.45-3.466s1.416-3.479 3.44-3.479c1.619-.013 2.797.823 3.143 2.221zm18.263-2.154c1.657 0 2.487.957 2.487 2.145.01.452-.134.894-.408 1.253a1.97 1.97 0 0 1-1.097.719l1.562 2.7h-1.86l-1.407-2.576h-.396v2.576h-1.647v-6.817h2.766zm-.098 1.379h-1.02v1.688h1.02c.634 0 .906-.319.906-.855s-.288-.833-.906-.833zm21.269 5.505a3.45 3.45 0 0 1-1.926-.587 3.48 3.48 0 0 1-1.277-1.566c-.263-.638-.333-1.34-.2-2.017a3.51 3.51 0 0 1 .947-1.789 3.46 3.46 0 0 1 1.774-.957c.672-.135 1.369-.067 2.003.197a3.47 3.47 0 0 1 1.556 1.285c.381.574.585 1.249.586 1.939a3.45 3.45 0 0 1-.245 1.347c-.171.428-.425.816-.749 1.142a3.4 3.4 0 0 1-1.132.756 3.38 3.38 0 0 1-1.337.249zm0-1.516c1.081 0 1.784-.785 1.784-1.979s-.703-1.982-1.784-1.982-1.793.766-1.793 1.982.691 1.979 1.793 1.979zm18.802-5.368h1.638v4.079c0 .804.393 1.277 1.175 1.277s1.195-.466 1.195-1.277v-4.079h1.647v4.069c0 1.883-1.308 2.815-2.87 2.815s-2.798-.932-2.798-2.815l.013-4.069zm23.95 4.369h-1.02v2.448h-1.651v-6.817h2.671c1.66 0 2.487.957 2.487 2.193 0 1.127-.761 2.177-2.487 2.177zm-.136-1.321c.655 0 .934-.319.934-.855s-.266-.855-.934-.855h-.897v1.707l.897.003z" fill="#3c2829"/></svg>
